X:1
T:ALICK C. McGREGOR
M:C
L:1/8
Q:80
C:G.S. Mac Lennan
S:Reel
K:HP
a[ | \
e3/2c/2{g}B/2{d}c3/2{g}A2{gAd}A3/2a/2 | \
{ef}e3/2c/2{g}B/2{d}A3/2{g}c2{gcd}c3/2a/2 | \
e3/2c/2{g}B/2{d}c3/2{g}A2{gAd}A3/2f/2 |
{gef}e3/2c/2a3/2c/2{g}B2{gBd}B3/2a/2 | \
e3/2c/2{g}B/2{d}c3/2{g}A2{gAd}A3/2a/2 | \
{ef}e3/2c/2{g}B/2{d}A3/2{g}c2{gcd}c3/2a/2 |
{g}e3/2f/2a3/2e/2{g}f/2a3/2e3/2f/2 | \
{g}c/2e3/2{g}B3/2{d}c/2{g}A2{gAd}A|]
a[ |
{fg}f2e3/2f/2{g}e3/2c/2a3/2e/2 | \
{gfg}f2e3/2f/2{g}c2{gcd}c3/2a/2 | \
{fg}f2e3/2f/2{g}e3/2c/2a3/2e/2 |
{gfg}f2{g}e3/2c/2{g}B2{gBd}B3/2a/2 | \
{fg}f2e3/2f/2{g}e3/2c/2a3/2e/2 | \
{gfg}f2e3/2f/2{g}c2{gcd}c3/2f/2 |
{g}e3/2f/2a3/2e/2{g}f/2a3/2e3/2f/2 | \
{g}c/2e3/2{g}B3/2{d}c/2{g}A2{gAd}A|]
a[ |
A2{gAd}A3/2{d}c/2{g}A2{gAd}A3/2{d}c/2 | \
{g}A3/2{d}c/2{e}B/2d3/2{g}c/2e3/2{g}c/2a3/2 | \
A2{gAd}A3/2{d}c/2{g}A2{gAd}A3/2f/2 |
{gef}e3/2c/2a3/2c/2{g}B2{gBd}B3/2a/2 | \
A2{gAd}A3/2{d}c/2{g}A2{gAd}A3/2{d}c/2 | \
{g}A3/2{d}c/2{e}B/2d3/2{g}c/2e3/2{g}c/2a3/2 |
f/2a3/2e3/2f/2{g}e3/2f/2c/2e3/2 | \
{g}c/2e3/2{g}B3/2{d}c/2{g}A2{gAd}A|]
a[ |
{ef}e2{cG}c3/2e/2{g}f2{dc}d3/2f/2 | \
{gef}e3/2c/2a3/2e/2{g}c2"dce"c3/2a/2 | \
{ef}e2{cG}c3/2e/2{g}f2{dc}d3/2f/2 |
{gef}e3/2c/2a3/2c/2{g}B2{gBd}B3/2a/2 | \
{ef}e2{cG}c3/2e/2{g}f2{dc}d3/2f/2 | \
{gef}e3/2c/2a3/2e/2{g}c2"dce"c3/2f/2 |
{g}e3/2f/2a3/2e/2{g}f/2a3/2e3/2f/2 | \
{g}c/2e3/2{g}B3/2{d}c/2{g}A2{gAd}A|]
